X: 14693
T: Gan Ainm
R: jig
M: 6/8
K: Cmajor
|:"C"CCC CDE|"C/E"DEG "F"A2G|c2G A2G|Acc "C/E"CCC|
CDE "Am7"DEG|"F"A2G Acc|A2G "F/G"ECC|CCC DEG:|
|:"C/E"CCC CDE|DCA, "F"G,3|G,A,C [E2G]D|[E2G]D "Am"CCC|
CDE "G/B"DCA,|"F"G,3 G,A,C|DCB, "F/G"CCC|CCC EGc:|

